dist/img/leasing-mult/condition-1.svg

<svg width="64" height="64" viewBox="0 0 64 64" fill="none" xmlns="http://www.w3.org/2000/svg">
<circle cx="32" cy="32" r="32" fill="#1F2120"/>
<path d="M38.5534 36.2429C38.5534 35.7081 38.514 35.1799 38.4484 34.6615L40.5745 33.2047L39.6329 30.3108L37.0671 30.383C36.5553 29.4446 35.922 28.5817 35.1936 27.8107L36.0565 25.386L33.5958 23.5978L31.5648 25.1629C30.6166 24.7101 29.5995 24.3787 28.5331 24.1818L27.808 21.7178H24.7665L24.0414 24.1818C22.9783 24.3787 21.9612 24.7101 21.0097 25.1629L18.9788 23.5978L16.518 25.386L17.3809 27.8107C16.6525 28.5817 16.0193 29.4446 15.5074 30.383L12.9417 30.3108L12 33.2047L14.1261 34.6615C14.0605 35.1799 14.0211 35.7048 14.0211 36.2429C14.0211 36.781 14.0605 37.3158 14.1261 37.8375L12 39.2943L12.9417 42.1882L15.5173 42.116C16.0291 43.0511 16.6591 43.9107 17.3842 44.6785L16.518 47.113L18.9788 48.9011L21.0228 47.3263C21.9678 47.7758 22.9783 48.1071 24.0381 48.3007L24.7698 50.7779H27.8113L28.543 48.3007C29.6028 48.1039 30.6133 47.7758 31.5582 47.3263L33.6023 48.9011L36.0631 47.113L35.1969 44.6785C35.9253 43.9107 36.5553 43.0511 37.0638 42.116L39.6394 42.1882L40.5811 39.2943L38.455 37.8375C38.5239 37.3158 38.56 36.7843 38.56 36.2429H38.5534Z" stroke="white" stroke-linecap="round" stroke-linejoin="round"/>
<path d="M33.2097 43.1711C37.0357 39.345 37.0357 33.1418 33.2097 29.3158C29.3837 25.4897 23.1804 25.4897 19.3544 29.3158C15.5284 33.1418 15.5284 39.345 19.3544 43.1711C23.1804 46.9971 29.3837 46.9971 33.2097 43.1711Z" stroke="white" stroke-linecap="round" stroke-linejoin="round"/>
<path d="M33.909 37.4821C34.5928 33.2698 31.7324 29.3008 27.5201 28.6171C23.3078 27.9333 19.3388 30.7938 18.655 35.006C17.9713 39.2183 20.8317 43.1873 25.044 43.8711C29.2563 44.5548 33.2253 41.6944 33.909 37.4821Z" stroke="white" stroke-linecap="round" stroke-linejoin="round"/>
<path d="M50.8154 19.7688C50.8154 19.4571 50.7924 19.152 50.7531 18.8501L51.9867 18.0036L51.4421 16.3237L49.9525 16.3664C49.6539 15.8217 49.2897 15.3197 48.8632 14.8735L49.3652 13.4659L47.9346 12.4258L46.7535 13.3347C46.2023 13.0722 45.6117 12.8786 44.9948 12.7638L44.5749 11.3333H42.8064L42.3864 12.7638C41.7696 12.8786 41.179 13.0722 40.6278 13.3347L39.4466 12.4258L38.0161 13.4659L38.5181 14.8735C38.0948 15.3197 37.7273 15.8217 37.4288 16.3664L35.9392 16.3237L35.3945 18.0036L36.6282 18.8501C36.5888 19.152 36.5659 19.4571 36.5659 19.7688C36.5659 20.0805 36.5888 20.3922 36.6282 20.694L35.3945 21.5406L35.9392 23.2204L37.4353 23.1778C37.7306 23.7192 38.0981 24.2212 38.5214 24.6641L38.0194 26.0782L39.4499 27.1183L40.6376 26.2062C41.1856 26.4687 41.7729 26.659 42.3897 26.7738L42.8129 28.2142H44.5814L45.0047 26.7738C45.6182 26.659 46.2055 26.4687 46.7568 26.2062L47.9445 27.1183L49.375 26.0782L48.873 24.6641C49.2963 24.2179 49.6605 23.7192 49.959 23.1778L51.4552 23.2204L51.9998 21.5406L50.7662 20.694C50.8056 20.3922 50.8285 20.0838 50.8285 19.7688H50.8154Z" stroke="white" stroke-linecap="round" stroke-linejoin="round"/>
<path d="M48.057 20.8008C48.6264 18.3882 47.1322 15.9708 44.7196 15.4014C42.307 14.8319 39.8895 16.3261 39.3201 18.7387C38.7507 21.1514 40.2449 23.5688 42.6575 24.1382C45.0701 24.7077 47.4875 23.2135 48.057 20.8008Z" stroke="white" stroke-linecap="round" stroke-linejoin="round"/>
</svg>

<svg width="64" height="64" viewBox="0 0 64 64" fill="none" xmlns="http://www.w3.org/2000/svg"><circle cx="32" cy="32" r="32" fill="#1F2120"/><path d="M38.553 36.243c0-.535-.039-1.063-.105-1.582l2.127-1.456-.942-2.894-2.566.072a12.387 12.387 0 00-1.873-2.572l.862-2.425-2.46-1.788-2.031 1.565a12.146 12.146 0 00-3.032-.981l-.725-2.464h-3.041l-.726 2.464c-1.063.197-2.08.528-3.031.98l-2.031-1.564-2.461 1.788.863 2.425a12.39 12.39 0 00-1.874 2.572l-2.565-.072L12 33.205l2.126 1.456a12.553 12.553 0 00-.105 1.582c0 .538.04 1.073.105 1.594L12 39.294l.942 2.894 2.575-.072a12.418 12.418 0 001.867 2.563l-.866 2.434 2.46 1.788 2.045-1.575c.945.45 1.955.781 3.015.975l.732 2.477h3.041l.732-2.477c1.06-.197 2.07-.525 3.015-.975l2.044 1.575 2.461-1.788-.866-2.434a12.18 12.18 0 001.867-2.563l2.575.072.942-2.894-2.126-1.456c.069-.522.105-1.054.105-1.595h-.007z" stroke="#fff" stroke-linecap="round" stroke-linejoin="round"/><path d="M33.21 43.171c3.826-3.826 3.826-10.03 0-13.855-3.826-3.826-10.03-3.826-13.856 0-3.826 3.826-3.826 10.029 0 13.855 3.826 3.826 10.03 3.826 13.856 0z" stroke="#fff" stroke-linecap="round" stroke-linejoin="round"/><path d="M33.909 37.482a7.727 7.727 0 10-15.254-2.476 7.727 7.727 0 0015.254 2.476zm16.906-17.713c0-.312-.023-.617-.062-.919l1.234-.846-.545-1.68-1.49.042a7.085 7.085 0 00-1.089-1.492l.502-1.408-1.43-1.04-1.181.909a7.119 7.119 0 00-1.76-.571l-.42-1.43h-1.768l-.42 1.43a7.12 7.12 0 00-1.758.57l-1.181-.908-1.43 1.04.501 1.408c-.423.446-.79.948-1.09 1.492l-1.489-.042-.544 1.68 1.233.846a6.976 6.976 0 000 1.844l-1.233.847.544 1.68 1.496-.043a7.026 7.026 0 001.086 1.486l-.502 1.414 1.43 1.04 1.189-.912a7.022 7.022 0 001.752.568l.423 1.44h1.768l.424-1.44a7.11 7.11 0 001.752-.568l1.188.912 1.43-1.04-.502-1.414a7.227 7.227 0 001.086-1.486l1.496.042.545-1.68-1.234-.846c.04-.302.063-.61.063-.925h-.014z" stroke="#fff" stroke-linecap="round" stroke-linejoin="round"/><path d="M48.057 20.8a4.488 4.488 0 10-8.737-2.061 4.488 4.488 0 008.737 2.062z" stroke="#fff" stroke-linecap="round" stroke-linejoin="round"/></svg>
